X:1
T:Lascia ch'io pianga
T:Lascia ch'io pianga
T:Handel
C:Handel
%%score 1 2 3
L:1/8
M:3/2
K:Bb
V:1 treble nm="Flute" snm="Fl."
V:2 treble transpose=-2 nm="B♭ Clarinet" snm="B♭ Cl."
V:3 treble transpose=-2 nm="B♭ Clarinet" snm="B♭ Cl."
V:1
 d4 d4 z2 d2 | e4 e4 z2 e2 | c4 f4 z2 e2 | (e2 d2) d4 z4 | g4 g4 (a2 bc') | f4 f4 z2 b2 | %6
 (d2 c2 d4) (c2 B2) | B12 | d4 b6 g2 | (=e2 d2) c4 z4 | g4 c'6 a2 | (f2 =e2) f4 z2 b2 | %12
 (a2 g2) a4 (g2 f2) | f12 | d4 d4 z2 d2 | e4 e4 z2 z2 | c4 f4 z2 e2 | e2 d2 d4 z4 | %18
 g4 g4 (a2 bc') | f4 f4 z2 b2 | (d2 c2) d4 (c2 B2) | B12 | d4 d4 z2 d2 | e4 e4 z2 e2 | %24
 c4 f4 z2 e2 | e2 d2 d4 z4 | g4 g4 (a2 bc') | f4 f4 z2 b2 | d2 c2 d4 c2 B2 | B12!fine!!fine! |] %30
 z12 | z12 | z12 | z12 | z12 | z12 | z12 | z12 | z12 | z12 | z12 | z12!D.C.! |] %42
V:2
[K:C] G4 G4 z2 G2 | c4 c4 z2 c2 | c4 B4 z2 z2 | G4 G4 z2 z2 | c4 c4 z2 c2 | B4 c4 z2 z2 | %6
 A4 c4 B4 | E12 | G4 E6 A2 | A4 ^F4 z4 | ^F4 ^f6 e2 | B4 c4 z2 e2 | B2 g2 g4 ^f4 | B12 | %14
 G4 G4 z2 E2 | A4 A4 z4 | c4 B4 z2 d2 | G4 G4 z4 | A4 A4 z4 | B4 c4 z4 | A4 c4 B4 | E12 | %22
 G4 G4 z2 G2 | c4 c4 z2 z2 | c4 B4 z2 d2 | G4 G4 z2 z2 | c4 c4 z2 z2 | B4 c4 z2 z2 | A4 c4 B4 | %29
 E12 |] E4 A6 B2 | (^G2 F2) E4 z4 | E4 A6 B2 | (c2 B2) c4 z4 | c4 (d2 c2) (B2 A2) | %35
 (d2 ^F2) G4 z2 F2 | (G2 A2) A8 | (B2 ^D2 E8) | (c2 B2) (A2 G2) (^F2 E2) | B4 ^D4 z2 A2 | %40
 G2 ^F2 F8 | E12 |] %42
V:3
[K:C] C4 C4 z2 C2 | D4 D4 z2 D2 | G4 G4 z2 z2 | C4 C2 B,2 A,2 G,2 | F,4 F4 z2 F2 | F4 E4 z2 z2 | %6
 F4 G4 G4 | C12 | C4 A,6 C2 | D4 D4 z4 | D4 B,6 D2 | E4 C4 z4 | d4 D8 | G,4 G2 F2 E2 D2 | %14
 C4 C4 z2 C2 | D4 D4 z2 z2 | G,4 G,4 z2 B,2 | C4 C2 B,2 A,2 G,2 | F,4 F4 z4 | F4 E4 z4 | %20
 F4 G4 G,4 | C12 | C4 C4 z2 C2 | D4 D4 z2 z2 | G,4 G,4 z2 B,2 | C4 C2 B,2 A,2 G,2 | F,4 F4 z2 z2 | %27
 F4 E4 z2 z2 | F4 G4 G4 | C12 |] A,4 C6 D2 | E6 F,2 E,2 D2 | C4 F4 D4 | A4 A,4 z4 | D4 C8 | %35
 B,4 E4 z4 | C4 A,4 D4 | G,4 C4 z2 B,2 | A,4 A,4 z4 | G,4 ^F,4 z2 ^D2 | E2 A,2 B,4 B,4 | %41
 E4 G2 F2 E2 D2 |] %42

